X:1
T: The Salmonfield Poacher
T: 8x32R 3C (Ian Barbour, Highlander Colln. 1)
T: 1SC, TL, dbleT, 1/2 R4 with 1st corners
P: The Salmonfield Poacher
C: by Deirdre Adamson 1994
C: Arr. T. Traub 1-27-2013
R: reel
M: 4/4
K: A
L: 1/8
|: (3EFG) |"A"A2 cB A2 ce|"D"feaf "A"ecAc|"D"d2 fd "A"cAec|"B7"B^dfa "E7"gedB|"A"A2 cB A2 ce|
"D"fdaf "A"ecAc|"E"dbBd "A"caec|"E"BdGB "A"A2 :||: (3efg|"F#m"a2 fa "E"g2 eg|"D"fgaf "A"ec'ce|
"D"d2 Bd "A"c2 Ac|"B7"B^dfa "E"gefg|"F#m"a2 fa "E"g2 eg|"D"fgaf "A"ecAc|"Bm"dbBd "A"caAc|"Bm"Bd"E"GB "A"A2 :|
